!!!OTL-incipit: NUR NAERRISCH SEYN IST MEIN MANIER
!!!ARE: Europa, Mitteleuropa, Deutschland
!!!SCT: Z0290
!!!TXL: @@DE
!!!YEM: Copyright 1995, estate of Helmut Schaffrath.
**kern	**text
*ICvox	*
*M2/4	*
*k[f#]	*
*G:	*
!LO:TX:a:t=Altes Lied.	!
{8g	Nur
=1	=1
8b	när-
8dd	-riſch
8g	ſeyn
8g	iſt
=2	=2
8b	mein'
8dd	Manier,
8g}	.
{16bL	nichts
16ddJ	.
=3	=3
8gg	ʒ'b'hal-
8dd	-ten
16ccL	ich
16bJ	.
16aL	be-
16gJ	.
=4	=4
4dd	-geh-
8dd}	-re,
{8g	So
=5	=5
8b	trink
8dd	ich
8g	frei,
8g	trinkt
=6	=6
8b	ihr
8dd	mit
8g}	mir,
{16bL	der
16ddJ	.
=7	=7
8gg	Nar-
8dd	-ren
16ccL	find't
16bJ	.
16aL	man
16gJ	.
=8	=8
4dd	meh-
8dd}	-re,
{(16ddL	Wein
16eeJ)	.
=9	=9
8ffn	iſt
8dd	mein
8ee	Freud
8cc	in
=10	=10
16eeL	die-
16ddJ	.
16ccL	-ſer
16bJ	.
8cc}	Ʒeit,
{16eeL	ʒum
16ddJ	.
=11	=11
8cc	Wein
8b	bin
8a	ich
8g	ge-
=12	=12
4dd	-ſchaf-
8dd}	-fen,
{(16ddL	Wein
16eeJ)	.
=13	=13
8ffn	giebt
8dd	mir
8ee	Muth
8cc	und
=14	=14
16eeL	fri-
16ddJ	.
16ccL	-ſches
16bJ	.
8cc}	Blut,
{16eeL	Wein
16ddJ	.
=15	=15
8cc	macht
8b	mich
8a	lu-
8g	-ſtig
=16	=16
4dd	ſchla-
8dd}	-fen,
{16ee	voll
16ff#	ʒu
=17	=17
8gg	ſeyn
8cc	bin
8b/	ich
8a	ge-
=18	=18
4g	-ſchaf-
8g}	-fen.
==	==
!!!AGN: Lyrisches Lied, Romanze, Trink - Lied
!!!ONB: ESAC (Essen Associative Code) Database: ZUCCAL
!!!AMT: simple duple
!!!AIN: vox
!!!EED: Helmut Schaffrath
!!!EEV: 1.0
!!!GTL: IV. Lyrische Lieder.
!!!URL-scan: https://www.digitale-sammlungen.de/de/view/bsb11160571?page=523
!!!ENC: Anna Maria Matuszewska
!!!EEV: 2025/01/30
*-	*-
